austria/municipalities/41628.svg

<?xml version="1.0" encoding="UTF-8"?>
<!DOCTYPE svg PUBLIC "-//W3C//DTD SVG 1.1//EN" "http://www.w3.org/Graphics/SVG/1.1/DTD/svg11.dtd">
<svg xmlns="http://www.w3.org/2000/svg" version="1.1" width="140px" height="171px" style="shape-rendering:geometricPrecision; text-rendering:geometricPrecision; image-rendering:optimizeQuality; fill-rule:evenodd; clip-rule:evenodd" xmlns:xlink="http://www.w3.org/1999/xlink">
<g><path style="opacity:1" fill="#060304" d="M -0.5,-0.5 C 45.8333,-0.5 92.1667,-0.5 138.5,-0.5C 138.667,31.5017 138.5,63.5017 138,95.5C 138.122,89.7401 137.289,84.4068 135.5,79.5C 135.5,53.5 135.5,27.5 135.5,1.5C 91.5,1.5 47.5,1.5 3.5,1.5C 3.5,28.5 3.5,55.5 3.5,82.5C 3.5,83.1667 3.5,83.8333 3.5,84.5C 2.51192,89.6405 2.17859,94.9738 2.5,100.5C 2.78522,102.288 2.45189,103.955 1.5,105.5C 0.833329,87.6713 0.166662,70.0046 -0.5,52.5C -0.5,34.8333 -0.5,17.1667 -0.5,-0.5 Z"/></g>
<g><path style="opacity:1" fill="#009340" d="M 135.5,79.5 C 134.791,80.404 133.791,80.7373 132.5,80.5C 130.473,80.6621 128.473,80.4955 126.5,80C 122.466,78.0632 118.299,76.5632 114,75.5C 106.421,78.871 98.5873,81.5377 90.5,83.5C 83.6403,80.5745 76.6403,77.9078 69.5,75.5C 61.6975,77.9075 54.0308,80.5741 46.5,83.5C 38.9395,80.5543 31.2729,77.8877 23.5,75.5C 16.6271,77.271 9.96044,79.6044 3.5,82.5C 3.5,55.5 3.5,28.5 3.5,1.5C 47.5,1.5 91.5,1.5 135.5,1.5C 135.5,27.5 135.5,53.5 135.5,79.5 Z"/></g>
<g><path style="opacity:1" fill="#15190a" d="M 73.5,26.5 C 72.678,24.6115 71.8447,22.6115 71,20.5C 68.9932,25.0199 67.4932,29.6866 66.5,34.5C 63.1461,34.2525 60.1461,33.2525 57.5,31.5C 60.2443,32.205 62.911,32.205 65.5,31.5C 67.2307,25.8078 69.064,20.1412 71,14.5C 72.772,18.313 73.6053,22.313 73.5,26.5 Z"/></g>
<g><path style="opacity:1" fill="#e1b31a" d="M 73.5,26.5 C 73.5751,29.2062 73.9084,31.8728 74.5,34.5C 78.6772,33.7471 82.6772,32.4138 86.5,30.5C 86.8333,30.8333 87.1667,31.1667 87.5,31.5C 84.4534,34.5448 81.7867,37.8781 79.5,41.5C 82.3172,44.8178 85.3172,47.9845 88.5,51C 84.5782,50.8967 80.7448,50.0634 77,48.5C 76.5,48.8333 76,49.1667 75.5,49.5C 73.6994,54.0686 72.1994,58.7352 71,63.5C 69.7301,58.5846 68.2301,53.7512 66.5,49C 62.4005,49.3812 58.7338,50.8812 55.5,53.5C 54.7611,53.631 54.0944,53.4643 53.5,53C 56.1667,49.3333 58.8333,45.6667 61.5,42C 58.3333,38.8333 55.1667,35.6667 52,32.5C 51.4719,31.184 51.9719,30.5173 53.5,30.5C 54.5676,31.4345 55.901,31.7678 57.5,31.5C 60.1461,33.2525 63.1461,34.2525 66.5,34.5C 67.4932,29.6866 68.9932,25.0199 71,20.5C 71.8447,22.6115 72.678,24.6115 73.5,26.5 Z"/></g>
<g><path style="opacity:1" fill="#111709" d="M 73.5,26.5 C 74.7384,28.2143 75.405,30.2143 75.5,32.5C 81.6777,30.8918 87.6777,29.0585 93.5,27C 89.3114,31.6876 85.3114,36.5209 81.5,41.5C 85.3179,45.8183 89.3179,49.985 93.5,54C 88.3224,53.2492 83.1558,52.0825 78,50.5C 74.7104,56.0198 72.3771,62.0198 71,68.5C 68.5586,62.7343 67.0586,56.7343 66.5,50.5C 62.7653,51.3012 59.0986,52.3012 55.5,53.5C 58.7338,50.8812 62.4005,49.3812 66.5,49C 68.2301,53.7512 69.7301,58.5846 71,63.5C 72.1994,58.7352 73.6994,54.0686 75.5,49.5C 76,49.1667 76.5,48.8333 77,48.5C 80.7448,50.0634 84.5782,50.8967 88.5,51C 85.3172,47.9845 82.3172,44.8178 79.5,41.5C 81.7867,37.8781 84.4534,34.5448 87.5,31.5C 87.1667,31.1667 86.8333,30.8333 86.5,30.5C 82.6772,32.4138 78.6772,33.7471 74.5,34.5C 73.9084,31.8728 73.5751,29.2062 73.5,26.5 Z"/></g>
<g><path style="opacity:1" fill="#111607" d="M 53.5,30.5 C 51.9719,30.5173 51.4719,31.184 52,32.5C 55.1667,35.6667 58.3333,38.8333 61.5,42C 58.8333,45.6667 56.1667,49.3333 53.5,53C 54.0944,53.4643 54.7611,53.631 55.5,53.5C 53.8212,55.1747 51.8212,56.008 49.5,56C 52.8333,51.3333 56.1667,46.6667 59.5,42C 55.1321,37.967 51.1321,33.6337 47.5,29C 49.6843,28.8794 51.6843,29.3794 53.5,30.5 Z"/></g>
<g><path style="opacity:0.772" fill="#272624" d="M -0.5,52.5 C 0.166662,70.0046 0.833329,87.6713 1.5,105.5C 2.45189,103.955 2.78522,102.288 2.5,100.5C 3.282,103.714 4.11534,107.048 5,110.5C 11.6487,104.724 19.1487,102.391 27.5,103.5C 19.4326,103.785 12.2659,106.452 6,111.5C 5.51722,112.448 5.35055,113.448 5.5,114.5C 4.20695,113.158 3.37362,111.491 3,109.5C 2.50258,112.146 2.33591,114.813 2.5,117.5C 1.37448,114.535 0.37448,111.535 -0.5,108.5C -0.5,89.8333 -0.5,71.1667 -0.5,52.5 Z"/></g>
<g><path style="opacity:1" fill="#e8e8e8" d="M 133.5,81.5 C 135.463,88.4238 136.13,95.7572 135.5,103.5C 134.549,104.919 134.216,106.585 134.5,108.5C 129.343,107.169 124.343,105.336 119.5,103C 117.667,102.833 115.833,102.667 114,102.5C 106.198,104.266 98.3642,105.933 90.5,107.5C 85.5558,107.463 80.8891,106.297 76.5,104C 71.1667,103.333 65.8333,103.333 60.5,104C 55.8495,106.106 51.0162,107.606 46,108.5C 39.9421,106.385 33.7754,104.718 27.5,103.5C 19.1487,102.391 11.6487,104.724 5,110.5C 4.11534,107.048 3.282,103.714 2.5,100.5C 2.17859,94.9738 2.51192,89.6405 3.5,84.5C 8.26052,82.6209 12.9272,80.4542 17.5,78C 21.1667,77.3333 24.8333,77.3333 28.5,78C 34.2341,81.0397 40.2341,83.2064 46.5,84.5C 48.1667,84.3333 49.8333,84.1667 51.5,84C 55.4803,82.0344 59.4803,80.0344 63.5,78C 71.7083,76.7353 79.0416,78.7353 85.5,84C 90.2387,84.7262 94.9053,84.3929 99.5,83C 103.87,80.3113 108.537,78.478 113.5,77.5C 118.451,78.0948 123.118,79.5948 127.5,82C 129.712,82.7891 131.712,82.6225 133.5,81.5 Z"/></g>
<g><path style="opacity:1" fill="#2f3a31" d="M 132.5,80.5 C 132.5,81.1667 132.833,81.5 133.5,81.5C 131.712,82.6225 129.712,82.7891 127.5,82C 123.118,79.5948 118.451,78.0948 113.5,77.5C 108.537,78.478 103.87,80.3113 99.5,83C 94.9053,84.3929 90.2387,84.7262 85.5,84C 79.0416,78.7353 71.7083,76.7353 63.5,78C 59.4803,80.0344 55.4803,82.0344 51.5,84C 49.8333,84.1667 48.1667,84.3333 46.5,84.5C 40.2341,83.2064 34.2341,81.0397 28.5,78C 24.8333,77.3333 21.1667,77.3333 17.5,78C 12.9272,80.4542 8.26052,82.6209 3.5,84.5C 3.5,83.8333 3.5,83.1667 3.5,82.5C 9.96044,79.6044 16.6271,77.271 23.5,75.5C 31.2729,77.8877 38.9395,80.5543 46.5,83.5C 54.0308,80.5741 61.6975,77.9075 69.5,75.5C 76.6403,77.9078 83.6403,80.5745 90.5,83.5C 98.5873,81.5377 106.421,78.871 114,75.5C 118.299,76.5632 122.466,78.0632 126.5,80C 128.473,80.4955 130.473,80.6621 132.5,80.5 Z"/></g>
<g><path style="opacity:0.967" fill="#151410" d="M 138.5,-0.5 C 138.833,-0.5 139.167,-0.5 139.5,-0.5C 139.5,33.8333 139.5,68.1667 139.5,102.5C 138.401,109.753 137.067,117.086 135.5,124.5C 130.139,140.034 120.473,152.201 106.5,161C 99.0851,165.074 91.4184,168.241 83.5,170.5C 74.1667,170.5 64.8333,170.5 55.5,170.5C 27.5413,163.208 9.87461,145.541 2.5,117.5C 2.33591,114.813 2.50258,112.146 3,109.5C 3.37362,111.491 4.20695,113.158 5.5,114.5C 11.8348,142.319 28.8348,159.819 56.5,167C 90.7243,171.138 115.224,157.638 130,126.5C 131.815,121.237 133.315,115.903 134.5,110.5C 135.369,108.283 135.702,105.95 135.5,103.5C 136.13,95.7572 135.463,88.4238 133.5,81.5C 132.833,81.5 132.5,81.1667 132.5,80.5C 133.791,80.7373 134.791,80.404 135.5,79.5C 137.289,84.4068 138.122,89.7401 138,95.5C 138.5,63.5017 138.667,31.5017 138.5,-0.5 Z"/></g>
<g><path style="opacity:1" fill="#e9ba1b" d="M 27.5,103.5 C 33.3591,106.165 39.5257,108.165 46,109.5C 53.2825,107.52 60.6159,105.853 68,104.5C 75.4605,105.541 82.7939,107.208 90,109.5C 98.1287,107.403 106.295,105.403 114.5,103.5C 121.367,105.267 128.033,107.6 134.5,110.5C 133.315,115.903 131.815,121.237 130,126.5C 115.224,157.638 90.7243,171.138 56.5,167C 28.8348,159.819 11.8348,142.319 5.5,114.5C 5.35055,113.448 5.51722,112.448 6,111.5C 12.2659,106.452 19.4326,103.785 27.5,103.5 Z"/></g>
<g><path style="opacity:0.494" fill="#3f3d3e" d="M 139.5,102.5 C 139.5,105.833 139.5,109.167 139.5,112.5C 138.784,116.692 137.451,120.692 135.5,124.5C 137.067,117.086 138.401,109.753 139.5,102.5 Z"/></g>
<g><path style="opacity:1" fill="#37342b" d="M 135.5,103.5 C 135.702,105.95 135.369,108.283 134.5,110.5C 128.033,107.6 121.367,105.267 114.5,103.5C 106.295,105.403 98.1287,107.403 90,109.5C 82.7939,107.208 75.4605,105.541 68,104.5C 60.6159,105.853 53.2825,107.52 46,109.5C 39.5257,108.165 33.3591,106.165 27.5,103.5C 33.7754,104.718 39.9421,106.385 46,108.5C 51.0162,107.606 55.8495,106.106 60.5,104C 65.8333,103.333 71.1667,103.333 76.5,104C 80.8891,106.297 85.5558,107.463 90.5,107.5C 98.3642,105.933 106.198,104.266 114,102.5C 115.833,102.667 117.667,102.833 119.5,103C 124.343,105.336 129.343,107.169 134.5,108.5C 134.216,106.585 134.549,104.919 135.5,103.5 Z"/></g>
<g><path style="opacity:1" fill="#18140e" d="M 72.5,122.5 C 73.0431,122.44 73.3764,122.107 73.5,121.5C 72.3112,120.571 70.9778,120.238 69.5,120.5C 68.2935,119.12 68.6269,117.953 70.5,117C 78.024,112.69 80.8573,114.857 79,123.5C 76.468,127.723 76.1347,132.056 78,136.5C 79.5545,138.927 80.7211,138.927 81.5,136.5C 82.1667,137.5 82.8333,138.5 83.5,139.5C 83.0719,143.275 83.7386,146.775 85.5,150C 82.9082,152.853 82.9082,155.686 85.5,158.5C 84.3112,159.429 82.9778,159.762 81.5,159.5C 78.6798,159.913 76.6798,158.913 75.5,156.5C 76.7618,156.093 78.0951,155.76 79.5,155.5C 80.3094,153.929 80.6427,152.262 80.5,150.5C 78.1845,149.64 75.8511,149.14 73.5,149C 72.7734,150.399 72.2734,151.899 72,153.5C 69.1188,154.212 66.9522,155.878 65.5,158.5C 63.4248,159.762 61.4248,159.595 59.5,158C 58.1667,157.333 58.1667,156.667 59.5,156C 57.0341,155.07 57.2007,154.237 60,153.5C 61.7892,154.409 63.6226,154.576 65.5,154C 66.2822,151.26 66.7822,148.426 67,145.5C 68.5998,144.134 70.4332,143.134 72.5,142.5C 70.3776,140.549 68.8776,138.215 68,135.5C 64.5087,135.643 61.0087,135.976 57.5,136.5C 56.209,136.263 55.209,136.596 54.5,137.5C 53.1667,136.833 52.1667,135.833 51.5,134.5C 51.5,133.833 51.5,133.167 51.5,132.5C 52.531,131.751 53.6976,131.085 55,130.5C 57.5931,132.837 60.4264,133.004 63.5,131C 61.4731,128.906 59.8065,126.573 58.5,124C 56.1756,122.838 53.8422,121.671 51.5,120.5C 53.3348,119.572 53.6682,118.406 52.5,117C 54.4025,116.801 55.9025,115.967 57,114.5C 57.8333,115.333 58.6667,116.167 59.5,117C 58.4829,118.049 58.3162,119.216 59,120.5C 61.0673,123.07 63.5673,125.07 66.5,126.5C 68.5355,125.115 70.5355,123.782 72.5,122.5 Z"/></g>
<g><path style="opacity:1" fill="#a43506" d="M 69.5,120.5 C 70.9778,120.238 72.3112,120.571 73.5,121.5C 73.3764,122.107 73.0431,122.44 72.5,122.5C 69.9734,122.353 67.3067,122.02 64.5,121.5C 66.0453,120.548 67.712,120.215 69.5,120.5 Z"/></g>
<g><path style="opacity:1" fill="#3f3e3b" d="M 83.5,139.5 C 82.8333,138.5 82.1667,137.5 81.5,136.5C 79.7392,130.701 80.4059,125.201 83.5,120C 84.9437,119.219 86.277,119.386 87.5,120.5C 89.1638,126.706 88.6638,132.706 86,138.5C 85.3292,139.252 84.4959,139.586 83.5,139.5 Z"/></g>
<g><path style="opacity:1" fill="#933c07" d="M 51.5,132.5 C 51.5,133.167 51.5,133.833 51.5,134.5C 48.8333,133.833 48.8333,133.167 51.5,132.5 Z"/></g>
<g><path style="opacity:1" fill="#7d3f0c" d="M 54.5,137.5 C 55.209,136.596 56.209,136.263 57.5,136.5C 57.631,137.239 57.4643,137.906 57,138.5C 56.3292,137.748 55.4959,137.414 54.5,137.5 Z"/></g>
<g><path style="opacity:1" fill="#a06a10" d="M 75.5,156.5 C 76.6798,158.913 78.6798,159.913 81.5,159.5C 81.631,160.239 81.4643,160.906 81,161.5C 78.6877,161.045 76.6877,160.045 75,158.5C 74.6667,158.833 74.3333,159.167 74,159.5C 73.4153,158.002 73.9153,157.002 75.5,156.5 Z"/></g>
</svg>

<svg xmlns="http://www.w3.org/2000/svg" width="140" height="171" style="shape-rendering:geometricPrecision;text-rendering:geometricPrecision;image-rendering:optimizeQuality;fill-rule:evenodd;clip-rule:evenodd"><path style="opacity:1" fill="#060304" d="M-.5-.5h139c.167 32.002 0 64.002-.5 96 .122-5.76-.711-11.093-2.5-16v-78H3.5v83c-.988 5.14-1.321 10.474-1 16 .285 1.788-.048 3.455-1 5a76777.67 76777.67 0 0 0-2-53v-53z"/><path style="opacity:1" fill="#009340" d="M135.5 79.5c-.709.904-1.709 1.237-3 1a18.437 18.437 0 0 1-6-.5 64.7 64.7 0 0 0-12.5-4.5 137.467 137.467 0 0 1-23.5 8 288.51 288.51 0 0 0-21-8 341.566 341.566 0 0 0-23 8 331.319 331.319 0 0 0-23-8 125.184 125.184 0 0 0-20 7v-81h132v78z"/><path style="opacity:1" fill="#15190a" d="M73.5 26.5a217.163 217.163 0 0 1-2.5-6 68.537 68.537 0 0 0-4.5 14c-3.354-.248-6.354-1.248-9-3 2.744.705 5.411.705 8 0a504.311 504.311 0 0 1 5.5-17 26.524 26.524 0 0 1 2.5 12z"/><path style="opacity:1" fill="#e1b31a" d="M73.5 26.5a41.58 41.58 0 0 0 1 8 44.181 44.181 0 0 0 12-4l1 1a57.488 57.488 0 0 0-8 10 120.692 120.692 0 0 0 9 9.5c-3.922-.103-7.755-.937-11.5-2.5l-1.5 1c-1.8 4.569-3.3 9.235-4.5 14A157.476 157.476 0 0 0 66.5 49c-4.1.381-7.766 1.881-11 4.5a2.428 2.428 0 0 1-2-.5l8-11-9.5-9.5c-.528-1.316-.028-1.983 1.5-2 1.068.934 2.401 1.268 4 1 2.646 1.752 5.646 2.752 9 3a68.537 68.537 0 0 1 4.5-14 217.163 217.163 0 0 0 2.5 6z"/><path style="opacity:1" fill="#111709" d="M73.5 26.5c1.238 1.714 1.905 3.714 2 6a221.008 221.008 0 0 0 18-5.5 247.932 247.932 0 0 0-12 14.5 211.782 211.782 0 0 0 12 12.5A103.283 103.283 0 0 1 78 50.5c-3.29 5.52-5.623 11.52-7 18a59.506 59.506 0 0 1-4.5-18 103.4 103.4 0 0 0-11 3c3.234-2.619 6.9-4.119 11-4.5 1.73 4.751 3.23 9.585 4.5 14.5 1.2-4.765 2.7-9.431 4.5-14l1.5-1c3.745 1.563 7.578 2.397 11.5 2.5a120.692 120.692 0 0 1-9-9.5 57.488 57.488 0 0 1 8-10l-1-1a44.181 44.181 0 0 1-12 4 41.58 41.58 0 0 1-1-8z"/><path style="opacity:1" fill="#111607" d="M53.5 30.5c-1.528.017-2.028.684-1.5 2l9.5 9.5-8 11a2.428 2.428 0 0 0 2 .5c-1.679 1.675-3.679 2.508-6 2.5l10-14a110.22 110.22 0 0 1-12-13c2.184-.12 4.184.38 6 1.5z"/><path style="opacity:.772" fill="#272624" d="M-.5 52.5a76777.67 76777.67 0 0 1 2 53c.952-1.545 1.285-3.212 1-5a845.56 845.56 0 0 0 2.5 10c6.649-5.776 14.149-8.109 22.5-7-8.067.285-15.234 2.952-21.5 8a4.932 4.932 0 0 0-.5 3c-1.293-1.342-2.126-3.009-2.5-5a32.438 32.438 0 0 0-.5 8 115.303 115.303 0 0 1-3-9v-56z"/><path style="opacity:1" fill="#e8e8e8" d="M133.5 81.5c1.963 6.924 2.63 14.257 2 22-.951 1.419-1.284 3.085-1 5a81.1 81.1 0 0 1-15-5.5l-5.5-.5a926.958 926.958 0 0 1-23.5 5c-4.944-.037-9.61-1.203-14-3.5a64.218 64.218 0 0 0-16 0 60.93 60.93 0 0 1-14.5 4.5 132.848 132.848 0 0 0-18.5-5c-8.351-1.109-15.851 1.224-22.5 7a845.56 845.56 0 0 1-2.5-10c-.321-5.526.012-10.86 1-16 4.76-1.88 9.427-4.046 14-6.5a30.499 30.499 0 0 1 11 0c5.734 3.04 11.734 5.206 18 6.5l5-.5c3.98-1.966 7.98-3.966 12-6 8.208-1.265 15.542.735 22 6 4.739.726 9.405.393 14-1 4.37-2.689 9.037-4.522 14-5.5a38.34 38.34 0 0 1 14 4.5c2.212.79 4.212.623 6-.5z"/><path style="opacity:1" fill="#2f3a31" d="M132.5 80.5c0 .667.333 1 1 1-1.788 1.123-3.788 1.29-6 .5a38.34 38.34 0 0 0-14-4.5c-4.963.978-9.63 2.811-14 5.5a31.315 31.315 0 0 1-14 1c-6.458-5.265-13.792-7.265-22-6-4.02 2.034-8.02 4.034-12 6l-5 .5c-6.266-1.294-12.266-3.46-18-6.5a30.499 30.499 0 0 0-11 0 132.324 132.324 0 0 1-14 6.5v-2a125.184 125.184 0 0 1 20-7 331.319 331.319 0 0 1 23 8 341.566 341.566 0 0 1 23-8 288.51 288.51 0 0 1 21 8 137.467 137.467 0 0 0 23.5-8 64.7 64.7 0 0 1 12.5 4.5c1.973.496 3.973.662 6 .5z"/><path style="opacity:.967" fill="#151410" d="M138.5-.5h1v103a386.17 386.17 0 0 1-4 22c-5.361 15.534-15.027 27.701-29 36.5-7.415 4.074-15.082 7.241-23 9.5h-28c-27.959-7.292-45.625-24.959-53-53a32.438 32.438 0 0 1 .5-8c.374 1.991 1.207 3.658 2.5 5 6.335 27.819 23.335 45.319 51 52.5 34.224 4.138 58.724-9.362 73.5-40.5a143.024 143.024 0 0 0 4.5-16c.869-2.217 1.202-4.55 1-7 .63-7.743-.037-15.076-2-22-.667 0-1-.333-1-1 1.291.237 2.291-.096 3-1 1.789 4.907 2.622 10.24 2.5 16 .5-31.998.667-63.998.5-96z"/><path style="opacity:1" fill="#e9ba1b" d="M27.5 103.5c5.86 2.665 12.026 4.665 18.5 6a267.763 267.763 0 0 1 22-5 133.178 133.178 0 0 1 22 5 1026.673 1026.673 0 0 1 24.5-6 124.789 124.789 0 0 1 20 7 143.024 143.024 0 0 1-4.5 16c-14.776 31.138-39.276 44.638-73.5 40.5-27.665-7.181-44.665-24.681-51-52.5a4.932 4.932 0 0 1 .5-3c6.266-5.048 13.433-7.715 21.5-8z"/><path style="opacity:.494" fill="#3f3d3e" d="M139.5 102.5v10a41.488 41.488 0 0 1-4 12 386.17 386.17 0 0 0 4-22z"/><path style="opacity:1" fill="#37342b" d="M135.5 103.5c.202 2.45-.131 4.783-1 7a124.789 124.789 0 0 0-20-7 1026.673 1026.673 0 0 0-24.5 6 133.178 133.178 0 0 0-22-5 267.763 267.763 0 0 0-22 5c-6.474-1.335-12.64-3.335-18.5-6a132.848 132.848 0 0 1 18.5 5 60.93 60.93 0 0 0 14.5-4.5 64.218 64.218 0 0 1 16 0c4.39 2.297 9.056 3.463 14 3.5a926.958 926.958 0 0 0 23.5-5l5.5.5a81.1 81.1 0 0 0 15 5.5c-.284-1.915.049-3.581 1-5z"/><path style="opacity:1" fill="#18140e" d="M72.5 122.5c.543-.06.876-.393 1-1-1.189-.929-2.522-1.262-4-1-1.207-1.38-.873-2.547 1-3.5 7.524-4.31 10.357-2.143 8.5 6.5-2.532 4.223-2.865 8.556-1 13 1.555 2.427 2.721 2.427 3.5 0l2 3c-.428 3.775.239 7.275 2 10.5-2.592 2.853-2.592 5.686 0 8.5-1.189.929-2.522 1.262-4 1-2.82.413-4.82-.587-6-3a31.98 31.98 0 0 1 4-1 9.107 9.107 0 0 0 1-5c-2.316-.86-4.649-1.36-7-1.5a15.28 15.28 0 0 0-1.5 4.5c-2.881.712-5.048 2.378-6.5 5-2.075 1.262-4.075 1.095-6-.5-1.333-.667-1.333-1.333 0-2-2.466-.93-2.3-1.763.5-2.5 1.79.909 3.623 1.076 5.5.5a42.332 42.332 0 0 0 1.5-8.5 15.265 15.265 0 0 1 5.5-3c-2.122-1.951-3.622-4.285-4.5-7a98.269 98.269 0 0 0-10.5 1c-1.291-.237-2.291.096-3 1a6.544 6.544 0 0 1-3-3v-2a19.588 19.588 0 0 1 3.5-2c2.593 2.337 5.426 2.504 8.5.5a28.69 28.69 0 0 1-5-7l-7-3.5c1.835-.928 2.168-2.094 1-3.5 1.903-.199 3.403-1.033 4.5-2.5l2.5 2.5c-1.017 1.049-1.184 2.216-.5 3.5a21.76 21.76 0 0 0 7.5 6 374.183 374.183 0 0 1 6-4z"/><path style="opacity:1" fill="#a43506" d="M69.5 120.5c1.478-.262 2.811.071 4 1-.124.607-.457.94-1 1-2.527-.147-5.193-.48-8-1 1.545-.952 3.212-1.285 5-1z"/><path style="opacity:1" fill="#3f3e3b" d="m83.5 139.5-2-3c-1.76-5.799-1.094-11.299 2-16.5 1.444-.781 2.777-.614 4 .5 1.664 6.206 1.164 12.206-1.5 18-.67.752-1.504 1.086-2.5 1z"/><path style="opacity:1" fill="#933c07" d="M51.5 132.5v2c-2.667-.667-2.667-1.333 0-2z"/><path style="opacity:1" fill="#7d3f0c" d="M54.5 137.5c.709-.904 1.709-1.237 3-1a2.427 2.427 0 0 1-.5 2c-.67-.752-1.504-1.086-2.5-1z"/><path style="opacity:1" fill="#a06a10" d="M75.5 156.5c1.18 2.413 3.18 3.413 6 3a2.427 2.427 0 0 1-.5 2c-2.312-.455-4.312-1.455-6-3l-1 1c-.585-1.498-.085-2.498 1.5-3z"/></svg>
